X: 20891
T: LOWELL SETT (tune 4)
C:
%R: reel, hornpipe
B: Elias Howe "The Musician's Companion" 1843 p.89 #1
S: http://imslp.org/wiki/The_Musician's_Companion_(Howe,_Elias)
Z: 2015 John Chambers <jc:trillian.mit.edu>
M: 2/4
L: 1/16
K: F
% - - - - - - - - - - - - - - - - - - - - - - - - - - - - -
V: 1 name="4"
(3(cdc) |\
A2(3(fgf) c2a2 | gf f4 ed | dcfc cBBA | (A4 G2) (3(cdc) |\
A2(3(fgf) c2a2 | gf d4 ef | gabg cfag | g4 f2 H|]
AB |\
c>dc>B A>GA>B | c>dc>A f3e | d2d>c (g3f) | e>fd>e c>BA>B |\
c>dc>B A>GA>B | c>dc>A fed^c | d>fe>d c>ee>g | f2a2"^D.C."f2 |]
% - - - - - - - - - - Dance description - - - - - - - - - -
%%begintext align
%% First couple forward and back,
%% lady cross over,
%% forward three,
%% two ladies cross over,
%% forward three again,
%% swing part's to place,
%% bal. four,
%% next couple for., &c.
%%endtext
% - - - - - - - - - - - - - - - - - - - - - - - - - - - - -
%%sep 1 1 300

%%sep 1 1 500

